man/figures/evoland-plus-logo.svg

<?xml version="1.0" encoding="UTF-8" standalone="no"?>
<!DOCTYPE svg PUBLIC "-//W3C//DTD SVG 1.1//EN" "http://www.w3.org/Graphics/SVG/1.1/DTD/svg11.dtd">
<svg width="100%" height="100%" viewBox="0 0 528 603" version="1.1" xmlns="http://www.w3.org/2000/svg" xmlns:xlink="http://www.w3.org/1999/xlink" xml:space="preserve" xmlns:serif="http://www.serif.com/" style="fill-rule:evenodd;clip-rule:evenodd;stroke-linejoin:bevel;stroke-miterlimit:1.5;">
    <g transform="matrix(1,0,0,1,-36.291667,2.727273)">
        <path d="M300,0l259.808,149.414l0,298.827l-259.808,149.414l-259.808,-149.414l-0,-298.827l259.808,-149.414Z" style="fill:#ebebeb;stroke:#595959;stroke-width:5.42px;"/>
    </g>
    <g transform="matrix(1.363636,0,0,1.363636,-85.382576,-50.454545)">
        <rect x="234" y="105" width="44" height="44" style="fill:#678639;stroke:#595959;stroke-width:4px;stroke-linejoin:miter;stroke-miterlimit:4;"/>
    </g>
    <g transform="matrix(1.363636,0,0,1.363636,-66.291667,-50.454545)">
        <rect x="286" y="105" width="44" height="44" style="fill:#6094be;stroke:#595959;stroke-width:4px;stroke-linejoin:miter;stroke-miterlimit:4;"/>
    </g>
    <g transform="matrix(1.363636,0,0,1.363636,-246.291667,-50.454545)">
        <rect x="286" y="105" width="44" height="44" style="fill:#6094be;stroke:#595959;stroke-width:4px;stroke-linejoin:miter;stroke-miterlimit:4;"/>
    </g>
    <g transform="matrix(1.363636,0,0,1.363636,20.981061,-50.454545)">
        <rect x="156" y="171" width="44" height="44" style="fill:#c13407;stroke:#595959;stroke-width:4px;stroke-linejoin:miter;stroke-miterlimit:4;"/>
    </g>
    <g transform="matrix(1.363636,0,0,1.363636,-139.92803,-50.454545)">
        <rect x="208" y="171" width="44" height="44" style="fill:#678639;stroke:#595959;stroke-width:4px;stroke-linejoin:miter;stroke-miterlimit:4;"/>
    </g>
    <g transform="matrix(1.363636,0,0,1.363636,-281.746212,39.545455)">
        <rect x="312" y="171" width="44" height="44" style="fill:#6094be;stroke:#595959;stroke-width:4px;stroke-linejoin:miter;stroke-miterlimit:4;"/>
    </g>
    <g transform="matrix(1.363636,0,0,1.363636,110.981061,-140.454545)">
        <rect x="156" y="237" width="44" height="44" style="fill:#678639;stroke:#595959;stroke-width:4px;stroke-linejoin:miter;stroke-miterlimit:4;"/>
    </g>
    <g transform="matrix(1.363636,0,0,1.363636,-49.92803,39.545455)">
        <rect x="208" y="237" width="44" height="44" style="fill:#678639;stroke:#595959;stroke-width:4px;stroke-linejoin:miter;stroke-miterlimit:4;"/>
    </g>
    <g transform="matrix(1.363636,0,0,1.363636,-49.92803,129.545455)">
        <rect x="208" y="237" width="44" height="44" style="fill:#fff3b1;stroke:#595959;stroke-width:4px;stroke-linejoin:miter;stroke-miterlimit:4;"/>
    </g>
    <g transform="matrix(1.363636,0,0,1.363636,-30.837121,-50.454545)">
        <rect x="260" y="237" width="44" height="44" style="fill:#c13407;stroke:#595959;stroke-width:4px;stroke-linejoin:miter;stroke-miterlimit:4;"/>
    </g>
    <g transform="matrix(1.363636,0,0,1.363636,-14.473485,-140.454545)">
        <rect x="182" y="303" width="44" height="44" style="fill:#c13407;stroke:#595959;stroke-width:4px;stroke-linejoin:miter;stroke-miterlimit:4;"/>
    </g>
    <g transform="matrix(1.363636,0,0,1.363636,-175.382576,-50.454545)">
        <rect x="234" y="303" width="44" height="44" style="fill:#9c9c9c;stroke:#595959;stroke-width:4px;stroke-linejoin:miter;stroke-miterlimit:4;"/>
    </g>
    <g transform="matrix(1.363636,0,0,1.363636,-175.382576,39.545455)">
        <rect x="234" y="303" width="44" height="44" style="fill:#fff3b1;stroke:#595959;stroke-width:4px;stroke-linejoin:miter;stroke-miterlimit:4;"/>
    </g>
    <g transform="matrix(1.363636,0,0,1.363636,-66.291667,-50.454545)">
        <rect x="286" y="303" width="44" height="44" style="fill:#fff3b1;stroke:#595959;stroke-width:4px;stroke-linejoin:miter;stroke-miterlimit:4;"/>
    </g>
    <g transform="matrix(1.363636,0,0,1.363636,-66.291667,39.545455)">
        <rect x="286" y="303" width="44" height="44" style="fill:#fff3b1;stroke:#595959;stroke-width:4px;stroke-linejoin:miter;stroke-miterlimit:4;"/>
    </g>
    <g transform="matrix(1.363636,0,0,1.363636,-159.018939,-50.454545)">
        <rect x="156" y="171" width="44" height="44" style="fill:#c13407;stroke:#595959;stroke-width:4px;stroke-linejoin:miter;stroke-miterlimit:4;"/>
    </g>
    <g transform="matrix(1.363636,0,0,1.363636,200.981061,-140.454545)">
        <rect x="156" y="237" width="44" height="44" style="fill:#678639;stroke:#595959;stroke-width:4px;stroke-linejoin:miter;stroke-miterlimit:4;"/>
    </g>
    <g transform="matrix(1.363636,0,0,1.363636,-229.92803,39.545455)">
        <rect x="208" y="237" width="44" height="44" style="fill:#678639;stroke:#595959;stroke-width:4px;stroke-linejoin:miter;stroke-miterlimit:4;"/>
    </g>
    <g transform="matrix(1.363636,0,0,1.363636,59.162879,-50.454545)">
        <rect x="260" y="237" width="44" height="44" style="fill:#fff3b1;stroke:#595959;stroke-width:4px;stroke-linejoin:miter;stroke-miterlimit:4;"/>
    </g>
    <g transform="matrix(1.363636,0,0,1.363636,-194.473485,-140.454545)">
        <rect x="182" y="303" width="44" height="44" style="fill:#c13407;stroke:#595959;stroke-width:4px;stroke-linejoin:miter;stroke-miterlimit:4;"/>
    </g>
    <g transform="matrix(1.363636,0,0,1.363636,23.708333,-50.454545)">
        <rect x="286" y="303" width="44" height="44" style="fill:#fff3b1;stroke:#595959;stroke-width:4px;stroke-linejoin:miter;stroke-miterlimit:4;"/>
    </g>
    <g transform="matrix(1.363636,0,0,1.363636,-85.382576,-140.454545)">
        <path d="M278,117.652l0,31.348l-44,0l0,-31.348l22,-12.652l22,12.652Z" style="fill:#678639;stroke:#595959;stroke-width:4px;stroke-miterlimit:4;"/>
    </g>
    <g transform="matrix(1.363636,0,0,1.363636,-66.291667,-140.454545)">
        <path d="M318.509,149l-32.509,0l0,-18.696l32.509,18.696Z" style="fill:#6094be;stroke:#595959;stroke-width:4px;stroke-miterlimit:4;"/>
    </g>
    <g transform="matrix(1.363636,0,0,1.363636,-246.291667,-140.454545)">
        <path d="M330,130.304l0,18.696l-32.509,0l32.509,-18.696Z" style="fill:#6094be;stroke:#595959;stroke-width:4px;stroke-miterlimit:4;"/>
    </g>
    <g transform="matrix(1.363636,0,0,1.363636,-319.92803,-50.454545)">
        <rect x="237.474" y="171" width="14.526" height="44" style="fill:#678639;stroke:#595959;stroke-width:4px;stroke-miterlimit:4;"/>
    </g>
    <g transform="matrix(1.363636,0,0,1.363636,-461.746212,39.545455)">
        <rect x="341.474" y="171" width="14.526" height="44" style="fill:#6094be;stroke:#595959;stroke-width:4px;stroke-miterlimit:4;"/>
    </g>
    <g transform="matrix(1.363636,0,0,1.363636,290.981061,-140.454545)">
        <rect x="156" y="237" width="14.526" height="44" style="fill:#678639;stroke:#595959;stroke-width:4px;stroke-miterlimit:4;"/>
    </g>
    <g transform="matrix(1.363636,0,0,1.363636,-49.92803,219.545455)">
        <path d="M208,266.628l0,-29.628l44,0l0,29.628l-22,12.652l-22,-12.652Z" style="fill:#678639;stroke:#595959;stroke-width:4px;stroke-miterlimit:4;"/>
    </g>
    <g transform="matrix(1.363636,0,0,1.363636,149.162879,-50.454545)">
        <rect x="260" y="237" width="14.526" height="44" style="fill:#fff3b1;stroke:#595959;stroke-width:4px;stroke-miterlimit:4;"/>
    </g>
    <g transform="matrix(1.363636,0,0,1.363636,-355.382576,-50.454545)">
        <rect x="263.474" y="303" width="14.526" height="44" style="fill:#9c9c9c;stroke:#595959;stroke-width:4px;stroke-miterlimit:4;"/>
    </g>
    <g transform="matrix(1.363636,0,0,1.363636,-175.382576,129.545455)">
        <path d="M248.482,303l29.518,0l0,16.976l-29.518,-16.976Z" style="fill:#9c9c9c;stroke:#595959;stroke-width:4px;stroke-miterlimit:4;"/>
    </g>
    <g transform="matrix(1.363636,0,0,1.363636,-66.291667,129.545455)">
        <path d="M286,319.976l0,-16.976l29.518,0l-29.518,16.976Z" style="fill:#678639;stroke:#595959;stroke-width:4px;stroke-miterlimit:4;"/>
    </g>
    <g transform="matrix(1.363636,0,0,1.363636,113.708333,-50.454545)">
        <rect x="286" y="303" width="14.526" height="44" style="fill:#fff3b1;stroke:#595959;stroke-width:4px;stroke-miterlimit:4;"/>
    </g>
    <g transform="matrix(-0.995964,-0.138954,0.105393,-0.755414,338.95466,649.025689)">
        <g transform="matrix(-0.984881,0.181164,-0.137408,-1.298503,423.011508,781.355355)">
            <path d="M248.894,415.37l14.814,-31.642l16.425,30.837l-31.24,0.805Z"/>
            <path d="M176.37,405.727c-3.022,63.37 82.454,83.756 87.983,2.992" style="fill:none;stroke:#000;stroke-width:10.42px;stroke-linejoin:round;stroke-dasharray:10.417,7.292,0,0,0,0;"/>
        </g>
    </g>
    <g transform="matrix(-0.995964,-0.138954,0.105393,-0.755414,520.891945,540.083101)">
        <g transform="matrix(-0.984881,0.181164,-0.137408,-1.298503,587.228551,606.932662)">
            <path d="M457.306,282.543l-13.597,32.184l-17.589,-30.188l31.186,-1.996Z"/>
            <path d="M353.708,310.785c0.635,-71.559 75.846,-82.55 88.403,-21.006" style="fill:none;stroke:#000;stroke-width:10.42px;stroke-linejoin:round;stroke-dasharray:10.417,7.292,0,0,0,0;"/>
        </g>
    </g>
    <g transform="matrix(-0.557121,-0.077728,0.167937,-1.203699,318.178255,528.9045)">
        <g transform="matrix(-1.76067,0.113694,-0.245644,-0.81491,690.129224,394.834787)">
            <path d="M279.333,193.477l-15.625,31.25l-15.625,-31.25l31.25,0Z"/>
            <path d="M263.708,122.727l0,77" style="fill:none;stroke:#000;stroke-width:10.42px;stroke-linejoin:round;stroke-dasharray:10.417,7.292,0,0,0,0;"/>
        </g>
    </g>
</svg>

<?xml version="1.0" encoding="UTF-8" standalone="no"?>
<!DOCTYPE svg PUBLIC "-//W3C//DTD SVG 1.1//EN" "http://www.w3.org/Graphics/SVG/1.1/DTD/svg11.dtd">
<svg width="100%" height="100%" viewBox="0 0 528 603" version="1.1" xmlns="http://www.w3.org/2000/svg" xmlns:xlink="http://www.w3.org/1999/xlink" xml:space="preserve" xmlns:serif="http://www.serif.com/" style="fill-rule:evenodd;clip-rule:evenodd;stroke-linejoin:bevel;stroke-miterlimit:1.5;">
    <g transform="matrix(1,0,0,1,-36.291667,2.727273)">
        <path d="M300,0L559.808,149.414L559.808,448.241L300,597.654L40.192,448.241L40.192,149.414L300,0Z" style="fill:rgb(236,236,236);stroke:rgb(89,89,89);stroke-width:5.42px;"/>
    </g>
    <g transform="matrix(1.363636,0,0,1.363636,-85.382576,-50.454545)">
        <rect x="234" y="105" width="44" height="44" style="fill:rgb(145,182,144);stroke:rgb(89,89,89);stroke-width:4px;stroke-linejoin:miter;stroke-miterlimit:4;"/>
    </g>
    <g transform="matrix(1.363636,0,0,1.363636,-66.291667,-50.454545)">
        <rect x="286" y="105" width="44" height="44" style="fill:rgb(102,155,188);stroke:rgb(89,89,89);stroke-width:4px;stroke-linejoin:miter;stroke-miterlimit:4;"/>
    </g>
    <g transform="matrix(1.363636,0,0,1.363636,-246.291667,-50.454545)">
        <rect x="286" y="105" width="44" height="44" style="fill:rgb(102,155,188);stroke:rgb(89,89,89);stroke-width:4px;stroke-linejoin:miter;stroke-miterlimit:4;"/>
    </g>
    <g transform="matrix(1.363636,0,0,1.363636,20.981061,-50.454545)">
        <rect x="156" y="171" width="44" height="44" style="fill:rgb(235,148,134);stroke:rgb(89,89,89);stroke-width:4px;stroke-linejoin:miter;stroke-miterlimit:4;"/>
    </g>
    <g transform="matrix(1.363636,0,0,1.363636,-139.92803,-50.454545)">
        <rect x="208" y="171" width="44" height="44" style="fill:rgb(145,182,144);stroke:rgb(89,89,89);stroke-width:4px;stroke-linejoin:miter;stroke-miterlimit:4;"/>
    </g>
    <g transform="matrix(1.363636,0,0,1.363636,-281.746212,39.545455)">
        <rect x="312" y="171" width="44" height="44" style="fill:rgb(102,155,188);stroke:rgb(89,89,89);stroke-width:4px;stroke-linejoin:miter;stroke-miterlimit:4;"/>
    </g>
    <g transform="matrix(1.363636,0,0,1.363636,110.981061,-140.454545)">
        <rect x="156" y="237" width="44" height="44" style="fill:rgb(145,182,144);stroke:rgb(89,89,89);stroke-width:4px;stroke-linejoin:miter;stroke-miterlimit:4;"/>
    </g>
    <g transform="matrix(1.363636,0,0,1.363636,-49.92803,39.545455)">
        <rect x="208" y="237" width="44" height="44" style="fill:rgb(145,182,144);stroke:rgb(89,89,89);stroke-width:4px;stroke-linejoin:miter;stroke-miterlimit:4;"/>
    </g>
    <g transform="matrix(1.363636,0,0,1.363636,-49.92803,129.545455)">
        <rect x="208" y="237" width="44" height="44" style="fill:rgb(243,222,138);stroke:rgb(89,89,89);stroke-width:4px;stroke-linejoin:miter;stroke-miterlimit:4;"/>
    </g>
    <g transform="matrix(1.363636,0,0,1.363636,-30.837121,-50.454545)">
        <rect x="260" y="237" width="44" height="44" style="fill:rgb(235,148,134);stroke:rgb(89,89,89);stroke-width:4px;stroke-linejoin:miter;stroke-miterlimit:4;"/>
    </g>
    <g transform="matrix(1.363636,0,0,1.363636,-14.473485,-140.454545)">
        <rect x="182" y="303" width="44" height="44" style="fill:rgb(235,148,134);stroke:rgb(89,89,89);stroke-width:4px;stroke-linejoin:miter;stroke-miterlimit:4;"/>
    </g>
    <g transform="matrix(1.363636,0,0,1.363636,-175.382576,-50.454545)">
        <rect x="234" y="303" width="44" height="44" style="fill:rgb(203,198,210);stroke:rgb(89,89,89);stroke-width:4px;stroke-linejoin:miter;stroke-miterlimit:4;"/>
    </g>
    <g transform="matrix(1.363636,0,0,1.363636,-175.382576,39.545455)">
        <rect x="234" y="303" width="44" height="44" style="fill:rgb(243,222,138);stroke:rgb(89,89,89);stroke-width:4px;stroke-linejoin:miter;stroke-miterlimit:4;"/>
    </g>
    <g transform="matrix(1.363636,0,0,1.363636,-66.291667,-50.454545)">
        <rect x="286" y="303" width="44" height="44" style="fill:rgb(243,222,138);stroke:rgb(89,89,89);stroke-width:4px;stroke-linejoin:miter;stroke-miterlimit:4;"/>
    </g>
    <g transform="matrix(1.363636,0,0,1.363636,-66.291667,39.545455)">
        <rect x="286" y="303" width="44" height="44" style="fill:rgb(243,222,138);stroke:rgb(89,89,89);stroke-width:4px;stroke-linejoin:miter;stroke-miterlimit:4;"/>
    </g>
    <g transform="matrix(1.363636,0,0,1.363636,-159.018939,-50.454545)">
        <rect x="156" y="171" width="44" height="44" style="fill:rgb(235,148,134);stroke:rgb(89,89,89);stroke-width:4px;stroke-linejoin:miter;stroke-miterlimit:4;"/>
    </g>
    <g transform="matrix(1.363636,0,0,1.363636,200.981061,-140.454545)">
        <rect x="156" y="237" width="44" height="44" style="fill:rgb(145,182,144);stroke:rgb(89,89,89);stroke-width:4px;stroke-linejoin:miter;stroke-miterlimit:4;"/>
    </g>
    <g transform="matrix(1.363636,0,0,1.363636,-229.92803,39.545455)">
        <rect x="208" y="237" width="44" height="44" style="fill:rgb(145,182,144);stroke:rgb(89,89,89);stroke-width:4px;stroke-linejoin:miter;stroke-miterlimit:4;"/>
    </g>
    <g transform="matrix(1.363636,0,0,1.363636,59.162879,-50.454545)">
        <rect x="260" y="237" width="44" height="44" style="fill:rgb(243,222,138);stroke:rgb(89,89,89);stroke-width:4px;stroke-linejoin:miter;stroke-miterlimit:4;"/>
    </g>
    <g transform="matrix(1.363636,0,0,1.363636,-194.473485,-140.454545)">
        <rect x="182" y="303" width="44" height="44" style="fill:rgb(235,148,134);stroke:rgb(89,89,89);stroke-width:4px;stroke-linejoin:miter;stroke-miterlimit:4;"/>
    </g>
    <g transform="matrix(1.363636,0,0,1.363636,23.708333,-50.454545)">
        <rect x="286" y="303" width="44" height="44" style="fill:rgb(243,222,138);stroke:rgb(89,89,89);stroke-width:4px;stroke-linejoin:miter;stroke-miterlimit:4;"/>
    </g>
    <g transform="matrix(1.363636,0,0,1.363636,-85.382576,-140.454545)">
        <path d="M278,117.652L278,149L234,149L234,117.652L256,105L278,117.652Z" style="fill:rgb(145,182,144);stroke:rgb(89,89,89);stroke-width:4px;stroke-miterlimit:4;"/>
    </g>
    <g transform="matrix(1.363636,0,0,1.363636,-66.291667,-140.454545)">
        <path d="M318.509,149L286,149L286,130.304L318.509,149Z" style="fill:rgb(102,155,188);stroke:rgb(89,89,89);stroke-width:4px;stroke-miterlimit:4;"/>
    </g>
    <g transform="matrix(1.363636,0,0,1.363636,-246.291667,-140.454545)">
        <path d="M330,130.304L330,149L297.491,149L330,130.304Z" style="fill:rgb(102,155,188);stroke:rgb(89,89,89);stroke-width:4px;stroke-miterlimit:4;"/>
    </g>
    <g transform="matrix(1.363636,0,0,1.363636,-319.92803,-50.454545)">
        <rect x="237.474" y="171" width="14.526" height="44" style="fill:rgb(145,182,144);stroke:rgb(89,89,89);stroke-width:4px;stroke-miterlimit:4;"/>
    </g>
    <g transform="matrix(1.363636,0,0,1.363636,-461.746212,39.545455)">
        <rect x="341.474" y="171" width="14.526" height="44" style="fill:rgb(102,155,188);stroke:rgb(89,89,89);stroke-width:4px;stroke-miterlimit:4;"/>
    </g>
    <g transform="matrix(1.363636,0,0,1.363636,290.981061,-140.454545)">
        <rect x="156" y="237" width="14.526" height="44" style="fill:rgb(145,182,144);stroke:rgb(89,89,89);stroke-width:4px;stroke-miterlimit:4;"/>
    </g>
    <g transform="matrix(1.363636,0,0,1.363636,-49.92803,219.545455)">
        <path d="M208,266.628L208,237L252,237L252,266.628L230,279.28L208,266.628Z" style="fill:rgb(145,182,144);stroke:rgb(89,89,89);stroke-width:4px;stroke-miterlimit:4;"/>
    </g>
    <g transform="matrix(1.363636,0,0,1.363636,149.162879,-50.454545)">
        <rect x="260" y="237" width="14.526" height="44" style="fill:rgb(243,222,138);stroke:rgb(89,89,89);stroke-width:4px;stroke-miterlimit:4;"/>
    </g>
    <g transform="matrix(1.363636,0,0,1.363636,-355.382576,-50.454545)">
        <rect x="263.474" y="303" width="14.526" height="44" style="fill:rgb(203,198,210);stroke:rgb(89,89,89);stroke-width:4px;stroke-miterlimit:4;"/>
    </g>
    <g transform="matrix(1.363636,0,0,1.363636,-175.382576,129.545455)">
        <path d="M248.482,303L278,303L278,319.976L248.482,303Z" style="fill:rgb(203,198,210);stroke:rgb(89,89,89);stroke-width:4px;stroke-miterlimit:4;"/>
    </g>
    <g transform="matrix(1.363636,0,0,1.363636,-66.291667,129.545455)">
        <path d="M286,319.976L286,303L315.518,303L286,319.976Z" style="fill:rgb(145,182,144);stroke:rgb(89,89,89);stroke-width:4px;stroke-miterlimit:4;"/>
    </g>
    <g transform="matrix(1.363636,0,0,1.363636,113.708333,-50.454545)">
        <rect x="286" y="303" width="14.526" height="44" style="fill:rgb(243,222,138);stroke:rgb(89,89,89);stroke-width:4px;stroke-miterlimit:4;"/>
    </g>
    <g transform="matrix(-0.995964,-0.138954,0.105393,-0.755414,338.95466,649.025689)">
        <g transform="matrix(-0.984881,0.181164,-0.137408,-1.298503,423.011508,781.355355)">
            <path d="M248.894,415.37L263.708,383.727L280.134,414.564L248.894,415.37Z"/>
            <path d="M176.37,405.727C173.348,469.098 258.823,489.483 264.353,408.719" style="fill:none;stroke:black;stroke-width:10.42px;stroke-linejoin:round;stroke-dasharray:10.417,7.292,0,0,0,0;"/>
        </g>
    </g>
    <g transform="matrix(-0.995964,-0.138954,0.105393,-0.755414,520.891945,540.083101)">
        <g transform="matrix(-0.984881,0.181164,-0.137408,-1.298503,587.228551,606.932662)">
            <path d="M457.306,282.543L443.708,314.727L426.12,284.539L457.306,282.543Z"/>
            <path d="M353.708,310.785C354.343,239.226 429.555,228.235 442.112,289.778" style="fill:none;stroke:black;stroke-width:10.42px;stroke-linejoin:round;stroke-dasharray:10.417,7.292,0,0,0,0;"/>
        </g>
    </g>
    <g transform="matrix(-0.557121,-0.077728,0.167937,-1.203699,318.178255,528.9045)">
        <g transform="matrix(-1.76067,0.113694,-0.245644,-0.81491,690.129224,394.834787)">
            <path d="M279.333,193.477L263.708,224.727L248.083,193.477L279.333,193.477Z"/>
            <path d="M263.708,122.727L263.708,199.727" style="fill:none;stroke:black;stroke-width:10.42px;stroke-linejoin:round;stroke-dasharray:10.417,7.292,0,0,0,0;"/>
        </g>
    </g>
</svg>
